!!!OTL: NUN ADE DU MEIN LIEB HEIMATLAND
!!!ARE: Europa, Mitteleuropa, Deutschland
!!!SCT: B0503
!!!YEM: Copyright 1995, estate of Helmut Schaffrath.
**kern
*ICvox
*Ivox
*M2/4
*k[f#c#]
*D:
{16d
16f#
=1
8a
8a
8a
8b
=2
8.a
16f#
8d}
{16b
16a
=3
8.a
16g
8g
8a
=4
4f#
8r}
{16d
16f#
=5
8a
8a
8a
8b
=6
8.a
16f#
8d}
{16b
16a
=7
8.a
16g
8g
8a
=8
4f#
8r}
{16d
16f#
=9
8e
8g
8g
8g
=10
8.f#
16a
8dd}
{16cc#
16dd
=11
8ee
8dd
8cc#
8b
=12
8.b
16a
8a}
{16b
16a
=13
8.a
16g
8g
8a
=14
4.f#}
==
!!!AGN: Abschieds - Lied
!!!ONB: ESAC (Essen Associative Code) Database: BOEHME
!!!AMT: simple duple
!!!AIN: vox
!!!EED: Helmut Schaffrath
!!!EEV: 1.0
*-
